Icons/rename_me_kindle.svg

<svg viewBox="0 0 48 48" xmlns:xlink="http://www.w3.org/1999/xlink">
 <defs>
  <linearGradient id="0">
   <stop stop-opacity="0"/>
   <stop offset="1"/>
  </linearGradient>
  <linearGradient xlink:href="#0" id="1" gradientUnits="userSpaceOnUse" gradientTransform="translate(4e-7,-48)" y1="47" x2="0" y2="1"/>
  <clipPath id="2">
   <g transform="translate(0,-1004.3622)">
    <rect rx="4" y="1005.36" x="1" height="46" width="46" fill="#1890d0"/>
   </g>
  </clipPath>
  <clipPath id="3">
   <g transform="translate(0,-1004.3622)">
    <rect rx="4" y="1005.36" x="1" height="46" width="46" fill="#1890d0"/>
   </g>
  </clipPath>
 </defs>
 <g>
  <g transform="translate(0,-1004.3622)">
   <path d="m 5,1006.3622 c -2.216,0 -4,1.784 -4,4 l 0,37.25 c 0,2.216 1.784,4 4,4 l 38,0 c 2.216,0 4,-1.784 4,-4 l 0,-37.25 c 0,-2.216 -1.784,-4 -4,-4 l -38,0 z m -4,41.5 0,0.5 c 0,2.216 1.784,4 4,4 l 38,0 c 2.216,0 4,-1.784 4,-4 l 0,-0.5 c 0,2.216 -1.784,4 -4,4 l -38,0 c -2.216,0 -4,-1.784 -4,-4 z" opacity="0.02"/>
   <path d="m 1,1047.6122 0,0.25 c 0,2.216 1.784,4 4,4 l 38,0 c 2.216,0 4,-1.784 4,-4 l 0,-0.25 c 0,2.216 -1.784,4 -4,4 l -38,0 c -2.216,0 -4,-1.784 -4,-4 z" opacity="0.05"/>
   <rect width="46" height="46" x="1" y="1005.61" rx="4" opacity="0.1"/>
  </g>
 </g>
 <g>
  <g transform="translate(0,-1004.3622)">
   <rect rx="4" y="1005.36" x="1" height="46" width="46" fill="#eeeeee"/>
  </g>
 </g>
 <g>
  <rect transform="scale(1,-1)" width="46" height="46" x="1" y="-46.998" rx="4" opacity="0.1" fill="url(#1)"/>
 </g>
 <g>
  <g clip-path="url(#2)">
   <g opacity="0.1">
    <g>
     <path d="M 18.046875 28 L 35 28 L 35 36 L 18.046875 36 Z M 18.046875 28 "/>
     <path d="M 17 28 L 19.027344 28 C 20.132812 28 21.027344 28.894531 21.027344 30 L 21.027344 34 C 21.027344 35.105469 20.132812 36 19.027344 36 L 17 36 C 15.894531 36 15 35.105469 15 34 L 15 30 C 15 28.894531 15.894531 28 17 28 Z M 17 28 "/>
     <path d="M 31.464844 29.003906 C 30.09375 29.003906 28.996094 30.101562 28.996094 31.472656 L 28.996094 32.535156 C 28.996094 33.90625 30.09375 35.003906 31.464844 35.003906 L 34.996094 35.003906 L 34.996094 29.003906 Z M 31.464844 29.003906 "/>
     <path d="M 31.464844 29.003906 C 30.65625 29.003906 29.945312 29.40625 29.496094 30.003906 L 34.996094 30.003906 L 34.996094 29.003906 Z M 29.058594 31.003906 C 29.03125 31.152344 28.996094 31.308594 28.996094 31.472656 L 28.996094 32.003906 L 34.996094 32.003906 L 34.996094 31.003906 Z M 29.058594 33.003906 C 29.132812 33.378906 29.277344 33.707031 29.496094 34.003906 L 34.996094 34.003906 L 34.996094 33.003906 Z M 29.058594 33.003906 "/>
     <path d="M 14.050781 20 L 31 20 L 31 28 L 14.050781 28 Z M 14.050781 20 "/>
     <path d="M 13 20 L 15.03125 20 C 16.132812 20 17.027344 20.894531 17.027344 22 L 17.027344 26 C 17.027344 27.105469 16.132812 28 15.03125 28 L 13 28 C 11.894531 28 11 27.105469 11 26 L 11 22 C 11 20.894531 11.894531 20 13 20 Z M 13 20 "/>
     <path d="M 27.464844 21.003906 C 26.09375 21.003906 24.996094 22.101562 24.996094 23.472656 L 24.996094 24.535156 C 24.996094 25.90625 26.09375 27.003906 27.464844 27.003906 L 30.996094 27.003906 L 30.996094 21.003906 Z M 27.464844 21.003906 "/>
     <path d="M 27.464844 21.003906 C 26.65625 21.003906 25.945312 21.40625 25.496094 22.003906 L 30.996094 22.003906 L 30.996094 21.003906 Z M 25.058594 23.003906 C 25.03125 23.152344 24.996094 23.308594 24.996094 23.472656 L 24.996094 24.003906 L 30.996094 24.003906 L 30.996094 23.003906 Z M 25.058594 25.003906 C 25.132812 25.378906 25.277344 25.707031 25.496094 26.003906 L 30.996094 26.003906 L 30.996094 25.003906 Z M 25.058594 25.003906 "/>
     <path d="M 18.046875 12 L 35 12 L 35 20 L 18.046875 20 Z M 18.046875 12 "/>
     <path d="M 17 12 L 19.027344 12 C 20.132812 12 21.027344 12.894531 21.027344 14 L 21.027344 18 C 21.027344 19.105469 20.132812 20 19.027344 20 L 17 20 C 15.894531 20 15 19.105469 15 18 L 15 14 C 15 12.894531 15.894531 12 17 12 Z M 17 12 "/>
     <path d="M 31.464844 13.003906 C 30.09375 13.003906 28.996094 14.101562 28.996094 15.472656 L 28.996094 16.535156 C 28.996094 17.90625 30.09375 19.003906 31.464844 19.003906 L 34.996094 19.003906 L 34.996094 13.003906 Z M 31.464844 13.003906 "/>
     <path d="M 31.464844 13.003906 C 30.65625 13.003906 29.945312 13.40625 29.496094 14.003906 L 34.996094 14.003906 L 34.996094 13.003906 Z M 29.058594 15.003906 C 29.03125 15.152344 28.996094 15.308594 28.996094 15.472656 L 28.996094 16.003906 L 34.996094 16.003906 L 34.996094 15.003906 Z M 29.058594 17.003906 C 29.132812 17.378906 29.277344 17.707031 29.496094 18.003906 L 34.996094 18.003906 L 34.996094 17.003906 Z M 29.058594 17.003906 "/>
    </g>
   </g>
  </g>
 </g>
 <g>
  <g clip-path="url(#3)">
   <g transform="translate(0,-1)">
    <g>
     <path d="M 18.046875 28 L 35 28 L 35 36 L 18.046875 36 Z M 18.046875 28 " fill="#de4b28"/>
     <path d="M 17 28 L 19.027344 28 C 20.132812 28 21.027344 28.894531 21.027344 30 L 21.027344 34 C 21.027344 35.105469 20.132812 36 19.027344 36 L 17 36 C 15.894531 36 15 35.105469 15 34 L 15 30 C 15 28.894531 15.894531 28 17 28 Z M 17 28 " fill="#de4b28"/>
     <path d="M 31.464844 29.003906 C 30.09375 29.003906 28.996094 30.101562 28.996094 31.472656 L 28.996094 32.535156 C 28.996094 33.90625 30.09375 35.003906 31.464844 35.003906 L 34.996094 35.003906 L 34.996094 29.003906 Z M 31.464844 29.003906 " fill="#ebddb7"/>
     <path d="M 31.464844 29.003906 C 30.65625 29.003906 29.945312 29.40625 29.496094 30.003906 L 34.996094 30.003906 L 34.996094 29.003906 Z M 29.058594 31.003906 C 29.03125 31.152344 28.996094 31.308594 28.996094 31.472656 L 28.996094 32.003906 L 34.996094 32.003906 L 34.996094 31.003906 Z M 29.058594 33.003906 C 29.132812 33.378906 29.277344 33.707031 29.496094 34.003906 L 34.996094 34.003906 L 34.996094 33.003906 Z M 29.058594 33.003906 " fill="#e3cc92"/>
     <path d="M 14.050781 20 L 31 20 L 31 28 L 14.050781 28 Z M 14.050781 20 " fill="#dd7f2d"/>
     <path d="M 13 20 L 15.03125 20 C 16.132812 20 17.027344 20.894531 17.027344 22 L 17.027344 26 C 17.027344 27.105469 16.132812 28 15.03125 28 L 13 28 C 11.894531 28 11 27.105469 11 26 L 11 22 C 11 20.894531 11.894531 20 13 20 Z M 13 20 " fill="#dd7f2d"/>
     <path d="M 27.464844 21.003906 C 26.09375 21.003906 24.996094 22.101562 24.996094 23.472656 L 24.996094 24.535156 C 24.996094 25.90625 26.09375 27.003906 27.464844 27.003906 L 30.996094 27.003906 L 30.996094 21.003906 Z M 27.464844 21.003906 " fill="#ebddb7"/>
     <path d="M 27.464844 21.003906 C 26.65625 21.003906 25.945312 21.40625 25.496094 22.003906 L 30.996094 22.003906 L 30.996094 21.003906 Z M 25.058594 23.003906 C 25.03125 23.152344 24.996094 23.308594 24.996094 23.472656 L 24.996094 24.003906 L 30.996094 24.003906 L 30.996094 23.003906 Z M 25.058594 25.003906 C 25.132812 25.378906 25.277344 25.707031 25.496094 26.003906 L 30.996094 26.003906 L 30.996094 25.003906 Z M 25.058594 25.003906 " fill="#e3cc92"/>
     <path d="M 18.046875 12 L 35 12 L 35 20 L 18.046875 20 Z M 18.046875 12 " fill="#537f95"/>
     <path d="M 17 12 L 19.027344 12 C 20.132812 12 21.027344 12.894531 21.027344 14 L 21.027344 18 C 21.027344 19.105469 20.132812 20 19.027344 20 L 17 20 C 15.894531 20 15 19.105469 15 18 L 15 14 C 15 12.894531 15.894531 12 17 12 Z M 17 12 " fill="#537f95"/>
     <path d="M 31.464844 13.003906 C 30.09375 13.003906 28.996094 14.101562 28.996094 15.472656 L 28.996094 16.535156 C 28.996094 17.90625 30.09375 19.003906 31.464844 19.003906 L 34.996094 19.003906 L 34.996094 13.003906 Z M 31.464844 13.003906 " fill="#ebddb7"/>
     <path d="M 31.464844 13.003906 C 30.65625 13.003906 29.945312 13.40625 29.496094 14.003906 L 34.996094 14.003906 L 34.996094 13.003906 Z M 29.058594 15.003906 C 29.03125 15.152344 28.996094 15.308594 28.996094 15.472656 L 28.996094 16.003906 L 34.996094 16.003906 L 34.996094 15.003906 Z M 29.058594 17.003906 C 29.132812 17.378906 29.277344 17.707031 29.496094 18.003906 L 34.996094 18.003906 L 34.996094 17.003906 Z M 29.058594 17.003906 " fill="#e3cc92"/>
    </g>
   </g>
  </g>
 </g>
 <g>
  <g transform="translate(0,-1004.3622)">
   <path d="m 1,1043.3622 0,4 c 0,2.216 1.784,4 4,4 l 38,0 c 2.216,0 4,-1.784 4,-4 l 0,-4 c 0,2.216 -1.784,4 -4,4 l -38,0 c -2.216,0 -4,-1.784 -4,-4 z" opacity="0.1"/>
  </g>
 </g>
</svg>

<svg viewBox="0 0 48 48"><defs><linearGradient id="linearGradient3764" x1="1" x2="47" gradientUnits="userSpaceOnUse" gradientTransform="translate(-48.000001,0.00221467)"><stop stop-color="#e4e4e4" stop-opacity="1"/><stop offset="1" stop-color="#eee" stop-opacity="1"/></linearGradient><clipPath id="clipPath-487381917"><g transform="translate(0,-1004.3622)"><rect rx="4" y="1005.36" x="1" height="46" width="46" fill="#1890d0"/></g></clipPath><clipPath id="clipPath-501003316"><g transform="translate(0,-1004.3622)"><rect rx="4" y="1005.36" x="1" height="46" width="46" fill="#1890d0"/></g></clipPath></defs><g><path d="m 1 43 l 0 0.25 c 0 2.216 1.784 4 4 4 l 38 0 c 2.216 0 4 -1.784 4 -4 l 0 -0.25 c 0 2.216 -1.784 4 -4 4 l -38 0 c -2.216 0 -4 -1.784 -4 -4 z m 0 0.5 l 0 0.5 c 0 2.216 1.784 4 4 4 l 38 0 c 2.216 0 4 -1.784 4 -4 l 0 -0.5 c 0 2.216 -1.784 4 -4 4 l -38 0 c -2.216 0 -4 -1.784 -4 -4 z" opacity="0.02"/><path d="m 1 43.25 l 0 0.25 c 0 2.216 1.784 4 4 4 l 38 0 c 2.216 0 4 -1.784 4 -4 l 0 -0.25 c 0 2.216 -1.784 4 -4 4 l -38 0 c -2.216 0 -4 -1.784 -4 -4 z" opacity="0.05"/><path d="m 1 43 l 0 0.25 c 0 2.216 1.784 4 4 4 l 38 0 c 2.216 0 4 -1.784 4 -4 l 0 -0.25 c 0 2.216 -1.784 4 -4 4 l -38 0 c -2.216 0 -4 -1.784 -4 -4 z" opacity="0.1"/></g><g><rect width="46" height="46" x="-47" y="1" rx="4" transform="matrix(0,-1,1,0,0,0)" fill="url(#linearGradient3764)" fill-opacity="1"/></g><g><g clip-path="url(#clipPath-487381917)"><g opacity="0.1"><!-- color: #eeeeee --><g><path d="m 18.05 28 l 16.953 0 l 0 8 l -16.953 0 m 0 -8" fill="#000"/><path d="m 17 28 l 2.027 0 c 1.105 0 2 0.895 2 2 l 0 4 c 0 1.105 -0.895 2 -2 2 l -2.027 0 c -1.105 0 -2 -0.895 -2 -2 l 0 -4 c 0 -1.105 0.895 -2 2 -2 m 0 0" fill="#000"/><path d="m 31.465 29 c -1.371 0 -2.469 1.098 -2.469 2.469 l 0 1.063 c 0 1.371 1.098 2.469 2.469 2.469 l 3.531 0 l 0 -6 m -3.531 0" fill="#000"/><path d="m 31.465 29 c -0.809 0 -1.52 0.402 -1.969 1 l 5.5 0 l 0 -1 m -5.938 2 c -0.027 0.148 -0.063 0.305 -0.063 0.469 l 0 0.531 l 6 0 l 0 -1 m -5.938 2 c 0.074 0.375 0.219 0.703 0.438 1 l 5.5 0 l 0 -1 m -5.938 0" fill="#000"/><path d="m 14.05 20 l 16.949 0 l 0 8 l -16.949 0 m 0 -8" fill="#000"/><path d="m 13 20 l 2.031 0 c 1.102 0 1.996 0.895 1.996 2 l 0 4 c 0 1.105 -0.895 2 -1.996 2 l -2.031 0 c -1.105 0 -2 -0.895 -2 -2 l 0 -4 c 0 -1.105 0.895 -2 2 -2 m 0 0" fill="#000"/><path d="m 27.465 21 c -1.371 0 -2.469 1.098 -2.469 2.469 l 0 1.063 c 0 1.371 1.098 2.469 2.469 2.469 l 3.531 0 l 0 -6 m -3.531 0" fill="#000"/><path d="m 27.465 21 c -0.809 0 -1.52 0.402 -1.969 1 l 5.5 0 l 0 -1 m -5.938 2 c -0.027 0.148 -0.063 0.305 -0.063 0.469 l 0 0.531 l 6 0 l 0 -1 m -5.938 2 c 0.074 0.375 0.219 0.703 0.438 1 l 5.5 0 l 0 -1 m -5.938 0" fill="#000"/><path d="m 18.05 12 l 16.953 0 l 0 8 l -16.953 0 m 0 -8" fill="#000"/><path d="m 17 12 l 2.027 0 c 1.105 0 2 0.895 2 2 l 0 4 c 0 1.105 -0.895 2 -2 2 l -2.027 0 c -1.105 0 -2 -0.895 -2 -2 l 0 -4 c 0 -1.105 0.895 -2 2 -2 m 0 0" fill="#000"/><path d="m 31.465 13 c -1.371 0 -2.469 1.098 -2.469 2.469 l 0 1.063 c 0 1.371 1.098 2.469 2.469 2.469 l 3.531 0 l 0 -6 m -3.531 0" fill="#000"/><path d="m 31.465 13 c -0.809 0 -1.52 0.402 -1.969 1 l 5.5 0 l 0 -1 m -5.938 2 c -0.027 0.148 -0.063 0.305 -0.063 0.469 l 0 0.531 l 6 0 l 0 -1 m -5.938 2 c 0.074 0.375 0.219 0.703 0.438 1 l 5.5 0 l 0 -1 m -5.938 0" fill="#000"/></g></g></g></g><g><g clip-path="url(#clipPath-501003316)"><g transform="translate(0,-1)"><!-- color: #eeeeee --><g><path d="m 18.05 28 l 16.953 0 l 0 8 l -16.953 0 m 0 -8" fill="#de4b28"/><path d="m 17 28 l 2.027 0 c 1.105 0 2 0.895 2 2 l 0 4 c 0 1.105 -0.895 2 -2 2 l -2.027 0 c -1.105 0 -2 -0.895 -2 -2 l 0 -4 c 0 -1.105 0.895 -2 2 -2 m 0 0" fill="#de4b28"/><path d="m 31.465 29 c -1.371 0 -2.469 1.098 -2.469 2.469 l 0 1.063 c 0 1.371 1.098 2.469 2.469 2.469 l 3.531 0 l 0 -6 m -3.531 0" fill="#ebddb7"/><path d="m 31.465 29 c -0.809 0 -1.52 0.402 -1.969 1 l 5.5 0 l 0 -1 m -5.938 2 c -0.027 0.148 -0.063 0.305 -0.063 0.469 l 0 0.531 l 6 0 l 0 -1 m -5.938 2 c 0.074 0.375 0.219 0.703 0.438 1 l 5.5 0 l 0 -1 m -5.938 0" fill="#e3cc92"/><path d="m 14.05 20 l 16.949 0 l 0 8 l -16.949 0 m 0 -8" fill="#dd7f2d"/><path d="m 13 20 l 2.031 0 c 1.102 0 1.996 0.895 1.996 2 l 0 4 c 0 1.105 -0.895 2 -1.996 2 l -2.031 0 c -1.105 0 -2 -0.895 -2 -2 l 0 -4 c 0 -1.105 0.895 -2 2 -2 m 0 0" fill="#dd7f2d"/><path d="m 27.465 21 c -1.371 0 -2.469 1.098 -2.469 2.469 l 0 1.063 c 0 1.371 1.098 2.469 2.469 2.469 l 3.531 0 l 0 -6 m -3.531 0" fill="#ebddb7"/><path d="m 27.465 21 c -0.809 0 -1.52 0.402 -1.969 1 l 5.5 0 l 0 -1 m -5.938 2 c -0.027 0.148 -0.063 0.305 -0.063 0.469 l 0 0.531 l 6 0 l 0 -1 m -5.938 2 c 0.074 0.375 0.219 0.703 0.438 1 l 5.5 0 l 0 -1 m -5.938 0" fill="#e3cc92"/><path d="m 18.05 12 l 16.953 0 l 0 8 l -16.953 0 m 0 -8" fill="#537f95"/><path d="m 17 12 l 2.027 0 c 1.105 0 2 0.895 2 2 l 0 4 c 0 1.105 -0.895 2 -2 2 l -2.027 0 c -1.105 0 -2 -0.895 -2 -2 l 0 -4 c 0 -1.105 0.895 -2 2 -2 m 0 0" fill="#537f95"/><path d="m 31.465 13 c -1.371 0 -2.469 1.098 -2.469 2.469 l 0 1.063 c 0 1.371 1.098 2.469 2.469 2.469 l 3.531 0 l 0 -6 m -3.531 0" fill="#ebddb7"/><path d="m 31.465 13 c -0.809 0 -1.52 0.402 -1.969 1 l 5.5 0 l 0 -1 m -5.938 2 c -0.027 0.148 -0.063 0.305 -0.063 0.469 l 0 0.531 l 6 0 l 0 -1 m -5.938 2 c 0.074 0.375 0.219 0.703 0.438 1 l 5.5 0 l 0 -1 m -5.938 0" fill="#e3cc92"/></g></g></g></g><g><g transform="translate(0,-1004.3622)"><path d="m 1 1043.36 0 4 c 0 2.216 1.784 4 4 4 l 38 0 c 2.216 0 4 -1.784 4 -4 l 0 -4 c 0 2.216 -1.784 4 -4 4 l -38 0 c -2.216 0 -4 -1.784 -4 -4 z" opacity="0.1"/></g></g></svg>
